src/actions/24/system-run.svg

<svg viewBox="0 0 24 24" xmlns="http://www.w3.org/2000/svg">
 <defs>
  <style type="text/css">.ColorScheme-Text {
        color:#2e3440;
      }</style>
 </defs>
 <path class="ColorScheme-Text" d="m4 4v4 11 1h10 6v-1-5-6-4h-16zm1 4h14v6 5h-5-9v-11zm5 3v6l5-3-5-3z" fill="currentColor"/>
</svg>

<svg xmlns="http://www.w3.org/2000/svg" viewBox="0 0 24 24">
  <defs id="defs3051">
    <style type="text/css" id="current-color-scheme">
      .ColorScheme-Text {
        color:#2e3440;
      }
      </style>
  </defs>
 <path style="fill:currentColor;fill-opacity:1;stroke:none" 
     d="M 4 4 L 4 8 L 4 19 L 4 20 L 14 20 L 20 20 L 20 19 L 20 14 L 20 8 L 20 4 L 4 4 z M 5 8 L 19 8 L 19 14 L 19 19 L 14 19 L 5 19 L 5 8 z M 10 11 L 10 17 L 15 14 L 10 11 z "
     class="ColorScheme-Text"
     />
</svg>
